X:7
T:Rosie Finn's Favourite
R:slide
D:Bothy Band: Old Hag You've Killed Me
Z:id:hn-slide-7
M:6/8
K:G
G2B d2g|b2g d2B|cBc agf|gfe dBA|G2B d2g|b2g d2B|cBc agf|g3 g2d:|
|:g2b c'2b|a2e e2g|f2a abg|f2d d2f|g2b c'2b|a2e a2g|faf def|g3 g2d:|
<end>
<start>
